x = 36, y = 36, rule = B3/S23
3$8b3o2b2o2b2ob6o3bobo$3bo2b2o2b2obo3bo2b3ob2o2bob2o$5bo2bobobob2ob2ob
ob2ob3ob2obo$3b3obo2b2ob3o3b2o2bob2obo2b2o$3bo2bobob2ob3o4bo4bob6o$3bo
3bobo2bobo2b5o2bo2b3ob2o$4b3obo2bo3b3obo3bobobo2bobo$4bob2obob3o2bob2o
2bo2bo2bo$5bobo2bo4bobo3bo2b2o3bobo$3b2o2bo4bob3o3bo4bobo2bo$3bo7bobob
ob3o3b2obo$3bob7o2b3ob3o2bobob2obo$6bo8b2o3bo3bob2ob2obo$5bobo2bo3b3ob
o2b9ob2o$4bob3o2bobo4b3o2b2o3b4o$3b2ob5o4b4o3b2o2b2obo2bo$5b3ob3obobo
3b2o4b2ob5o$5bobo2b2ob2o2b2o2bo3b3o$5b2ob3o3b5o2b3obobo3bo$3b2obobobo
2b2ob3o3b4o4bo$3b3obobo2bo3bobob3obob4obo$5bobobo2bob5o2b4ob2o3b2o$5bo
4b3o4b2ob3ob2o2bo3bo$3bob7o4bo3b4o3bobob2o$3bo6bobob6o3b2o3b2o$3bo2bo
2b3obo3b3ob5o3bo2bo$5b6ob3ob2o2bo2bob3o2b3o$3b2o2bo3bo2b2obobo2bobobo
2b2obo$3bo2b2o3bo5bo3bo4bobobo$3b2ob3obo2b2obob3obob3o4bo!
